X:81
T: Jungfer Doertchen
N: Q0057T
O: Mitteleuropa, Deutschland (BRD) , Baden
N: Zweistimmig notiert, Oberstimme kodiert.
R: Ballade, Todesahnung, Tod, Selbstmord
M: 6/8
L: 1/16
K: G
G2G4B2 | d4e2d4e2 | d2B2
B2A4d2 | c2c2d2A4c2 | c2B2
G2G4B2 | B2A2c2c4e2 | c2B2
GAB4Bc | d4d2A4c2 | c2B2

@@@ Tune index: 957
